packages/icons/svg/Device_Desktop_32px.svg

<svg xmlns="http://www.w3.org/2000/svg" viewBox="0 0 32 32"><path d="M27 5H5a2 2 0 00-2 2v16a2 2 0 002 2h6v2H8a1 1 0 000 2h16a1 1 0 000-2h-3v-2h6a2 2 0 002-2V7a2 2 0 00-2-2zM5 7h22v11.6H5zm15 20h-8v-2h8zM5 23v-3.4h22V23z"/></svg>

<svg xmlns="http://www.w3.org/2000/svg" viewBox="0 0 32 32"><defs></defs><g id="Icon"><path  d="M27,5H5A2,2,0,0,0,3,7V23a2,2,0,0,0,2,2h6v2H8a1,1,0,0,0,0,2H24a1,1,0,0,0,0-2H21V25h6a2,2,0,0,0,2-2V7A2,2,0,0,0,27,5ZM5,7H27V18.6H5ZM20,27H12V25h8ZM5,23V19.6H27V23Z"/></g></svg>
